X: 1
T: Bonny Anne
M: 4/4
L: 1/8
R: reel
K: Dmaj
f2ed cAAB|cAdB cAA2|f2ed cAAB|cAGE FDD2|
f2ed cAAB|cAdB cAGE|DEFG Addc|(3ABA GE FDD2:|
|:Addc defg|a2af ~g3z|Addc dfed|cA{B}AG EFGE|
Addc defg|~a3f g2fg|afge dfed|cAGE FDD2:|
